public/logo_border.svg

<svg xmlns="http://www.w3.org/2000/svg" width="299.902" height="415.657" viewBox="0 0 299.902 415.657"><g fill="none"><path d="M70.63,100.222v-.257l4.811-20.38.449.161,23.171-13.36h0l-.073-.126L213.85,0,299.9,148.921l-.615.355-4.172,19.592-.141.081.107.151-4.753,20.512L241.3,217.892l26.6,46.035-.131.076.065.073-4.721,19.8-.324.187-4.464,20.558-41.022,23.664-41.842-72.411-52.68,30.389v61.38l-.115.066L118,367.588l-.067.039.022.358-4.742,20.348L65.843,415.657V319.109l-42.159,24.32L0,302.441l4.76-20.51.125-.066-.1-.169L9.7,261.974l-.13-.224.217-.125.057-.228.682-.2,55.313-31.908V120.71Z" stroke="none"/><path d="M 213.1181488037109 2.731048583984375 L 101.7206878662109 66.99197387695312 L 101.7936096191406 67.11825561523438 L 100.0598297119141 68.11798095703125 L 77.07400512695312 81.3717041015625 L 72.62998962402344 100.197998046875 L 72.62998962402344 100.2216186523438 L 72.62998962402344 100.4522094726562 L 72.5775146484375 100.6766662597656 L 67.8427734375 120.9401550292969 L 67.8427734375 229.2909393310547 L 67.8427734375 230.4461517333984 L 66.84214782714844 231.0233612060547 L 11.52923583984375 262.9312744140625 L 11.5262451171875 262.9329833984375 L 6.923370361328125 281.3961791992188 L 7.655731201171875 282.6640014648438 L 6.50201416015625 283.2734375 L 2.126708984375 302.1243896484375 L 24.41586303710938 340.6977233886719 L 64.84339904785156 317.3766174316406 L 67.8427734375 315.6464233398438 L 67.8427734375 319.1090393066406 L 67.8427734375 412.1945190429688 L 111.4601593017578 387.0332946777344 L 115.938720703125 367.81591796875 L 115.9346618652344 367.7507934570312 L 115.8577270507812 366.5143432617188 L 116.2491302490234 366.2882690429688 L 120.7239837646484 347.2492980957031 L 120.7854614257812 346.9877319335938 L 120.7854614257812 286.260986328125 L 120.7854614257812 285.1057739257812 L 121.7860870361328 284.528564453125 L 174.466552734375 254.1392059326172 L 176.1977233886719 253.1405639648438 L 177.1976165771484 254.8709869384766 L 218.0396575927734 325.5516662597656 L 256.5634155273438 303.3287658691406 L 260.8391418457031 283.6362915039062 L 261.027099609375 282.7707214355469 L 261.37158203125 282.572021484375 L 265.65185546875 264.6222534179688 L 264.6546630859375 263.49365234375 L 265.1715698242188 263.1953125 L 239.5719909667969 218.8929901123047 L 238.5706176757812 217.1600341796875 L 240.3042907714844 216.1599426269531 L 288.5756225585938 188.3140563964844 L 292.9298706054688 169.5221099853516 L 292.0746154785156 168.3127288818359 L 293.3443298339844 167.5802154541016 L 297.3308715820312 148.8592529296875 L 297.3917236328125 148.5735473632812 L 213.1181488037109 2.731048583984375 M 213.8499298095703 0 L 299.9023132324219 148.9208984375 L 299.2870483398438 149.2757873535156 L 295.1150512695312 168.8676147460938 L 294.9740905761719 168.9489288330078 L 295.0807189941406 169.0997314453125 L 290.3278198242188 189.6121978759766 L 241.3036651611328 217.8923645019531 L 267.9044189453125 263.92724609375 L 267.7734680175781 264.0028381347656 L 267.8381958007812 264.0761108398438 L 263.1171875 283.8740234375 L 262.7936096191406 284.0606689453125 L 258.3299865722656 304.6186218261719 L 217.3078765869141 328.28271484375 L 175.4659271240234 255.8716125488281 L 122.7854614257812 286.260986328125 L 122.7854614257812 347.6408386230469 L 122.6709289550781 347.7068786621094 L 117.9982452392578 367.5875549316406 L 117.9308319091797 367.6265258789062 L 117.9530944824219 367.9841918945312 L 113.2110290527344 388.3322143554688 L 65.8427734375 415.6571350097656 L 65.8427734375 319.1090393066406 L 23.68408203125 343.4287719726562 L -3.0517578125e-05 302.4413452148438 L 4.760284423828125 281.9316711425781 L 4.884918212890625 281.8658447265625 L 4.7872314453125 281.6967163085938 L 9.70404052734375 261.974365234375 L 9.57440185546875 261.7500610351562 L 9.7911376953125 261.625 L 9.847930908203125 261.3972473144531 L 10.52987670898438 261.1988525390625 L 65.8427734375 229.2909393310547 L 65.8427734375 120.7096862792969 L 70.62998962402344 100.2216186523438 L 70.62998962402344 99.96502685546875 L 75.44082641601562 79.58477783203125 L 75.88998413085938 79.7457275390625 L 99.06077575683594 66.38534545898438 L 98.988037109375 66.2593994140625 L 213.8499298095703 0 Z" stroke="none" fill="#fff"/></g></svg>

<svg height="415.657" viewBox="0 0 299.902 415.657" width="299.902" xmlns="http://www.w3.org/2000/svg"><g fill="none"><path d="m70.63 100.222v-.257l4.811-20.38.449.161 23.171-13.36-.073-.126 114.862-66.26 86.05 148.921-.615.355-4.172 19.592-.141.081.107.151-4.753 20.512-49.026 28.28 26.6 46.035-.131.076.065.073-4.721 19.8-.324.187-4.464 20.558-41.022 23.664-41.842-72.411-52.68 30.389v61.38l-.115.066-4.666 19.879-.067.039.022.358-4.742 20.348-47.37 27.324v-96.548l-42.159 24.32-23.684-40.988 4.76-20.51.125-.066-.1-.169 4.915-19.722-.13-.224.217-.125.057-.228.682-.2 55.313-31.908v-108.579z"/><path d="m213.1181488 2.73104858-111.39746093 64.2609253.07292175.12628174-1.73377991.99972534-22.98582458 13.25372314-4.44401551 18.82629395v.0236206.23059082l-.05247497.22445679-4.73474121 20.26348877v108.3507843 1.1552124l-1.00062561.57720948-55.31291199 31.9079132-.00299072.00170899-4.60287476 18.4631958.73236084 1.26782226-1.15371704.60943604-4.37530518 18.85095215 22.28915406 38.57333374 40.42753601-23.32110596 2.99937439-1.73019409v3.46261597 93.08547973l43.61738586-25.16122436 4.4785614-19.21737671-.00405883-.06512451-.07693482-1.2364502.3914032-.22607422 4.47485351-19.03897094.06147767-.26156617v-60.7267456-1.1552124l1.00062561-.57720948 52.68046569-30.38935852 1.73117066-.99864197.99989319 1.73042298 40.84204101 70.68067932 38.52375794-22.22290039 4.27572632-19.69247437.18795776-.86557006.34448242-.19869996 4.28027344-17.94976806-.99719238-1.12860108.51690673-.29833984-25.59957885-44.30232239-1.00137329-1.73295593 1.73367309-1.00009155 48.27133179-27.84588623 4.35424805-18.79194641-.85525513-1.20938111 1.26971435-.73251343 3.98654175-18.72096252.06085205-.28570557zm.73178101-2.73104858 86.05238342 148.92089844-.61526489.35488891-4.17199707 19.5918274-.14096069.08131408.10662841.15080262-4.75289917 20.51246643-49.02415466 28.28016662 26.60075379 46.03488159-.13095093.07559204.06472778.07327271-4.7210083 19.7979126-.32357788.18664551-4.46362305 20.55795288-41.02210998 23.66409301-41.84194947-72.41110229-52.68046569 30.38937378v61.37985229l-.11453247.06604004-4.67268372 19.88067627-.06741333.03897095.02226257.35766601-4.74206543 20.34802247-47.36825561 27.32492065v-96.5480957l-42.15869141 24.31973266-23.68411255-40.98742676 4.76031494-20.50967407.12463379-.06582641-.09768676-.16912842 4.91680908-19.72235108-.12963867-.22430419.21673584-.12506104.05679321-.22775269.6819458-.19839477 55.31289673-31.90791321v-108.58125305l4.78721618-20.48806763v-.25659179l4.8108368-20.38024903.44915771.16094971 23.17079163-13.36038208-.07273865-.12594605z" fill="#fff"/></g></svg>
